assets/vintage.cube
TITLE "Generated by Resolve"
LUT_3D_SIZE 9
0 0.00106813 0.00103761
0.0329137 0.00302129 0.00260929
0.0875563 0.00823987 0.00556954
0.218509 0.0106203 0.00227359
0.401373 0.0107576 0
0.592859 0.0140993 0.010956
0.718303 0.013077 0.0171206
0.797009 0.0108186 0.0176394
0.861173 0.00819409 0.0164187
0.00517281 0.0230259 0.00529488
0.0219272 0.0188296 0.00466926
0.0689708 0.0162203 0.0059968
0.184009 0.0107424 0.00402838
0.363195 0.0102235 0
0.562585 0.0138399 0.00881971
0.701549 0.0134127 0.0166934
0.792645 0.0109865 0.0176547
0.869718 0.00781262 0.016144
0.0142824 0.052018 0.011017
0.0133669 0.0489509 0.0103914
0.0521096 0.0476539 0.0105592
0.164706 0.0458991 0.00648508
0.344686 0.0414282 7.62951e-05
0.553033 0.0399329 0.00869764
0.705653 0.0415045 0.0170443
0.806607 0.0492409 0.0176089
0.888533 0.0608988 0.0154421
0.0331121 0.113985 0.0225834
0.0343023 0.118273 0.0233463
0.0387121 0.120363 0.023743
0.143511 0.128466 0.019379
0.330892 0.142229 0.00563058
0.536522 0.151369 0.0093843
0.686107 0.163882 0.0160067
0.785428 0.181628 0.016846
0.866972 0.203891 0.013962
0.0644236 0.221546 0.0410315
0.0676432 0.23122 0.0424964
0.0696422 0.237247 0.0433967
0.14464 0.245548 0.0434272
0.31989 0.26685 0.0296483
0.523598 0.296117 0.0158999
0.671427 0.321309 0.0159609
0.771817 0.353353 0.0133516
0.855848 0.389532 0.00743114
0.120333 0.357549 0.0589914
0.127077 0.371923 0.0607462
0.133379 0.385183 0.0624704
0.194842 0.396963 0.0642557
0.383734 0.437095 0.0730602
0.568093 0.480125 0.0564889
0.689052 0.517983 0.0316472
0.783398 0.556252 0.0187076
0.864408 0.593454 0.00900282
0.194247 0.511482 0.0844587
0.20473 0.533593 0.0895705
0.213931 0.553414 0.0944686
0.319524 0.578576 0.104234
0.504234 0.625589 0.116213
0.653544 0.671931 0.106401
0.75433 0.699077 0.0725872
0.831678 0.72636 0.0471046
0.898817 0.751461 0.0350195
0.267796 0.664424 0.126757
0.280308 0.686458 0.134432
0.31809 0.707286 0.141695
0.453986 0.739559 0.153643
0.603326 0.77615 0.161166
0.719615 0.803967 0.150469
0.81149 0.821988 0.120623
0.878737 0.838849 0.0923476
0.932097 0.858137 0.0780041
0.35172 0.791165 0.178439
0.35172 0.791165 0.178439
0.425666 0.806317 0.185
0.535622 0.832242 0.195651
0.65684 0.863844 0.199954
0.758648 0.890486 0.188388
0.844144 0.906905 0.1608
0.905745 0.921538 0.140902
0.952468 0.938338 0.140764
0 0.00756847 0.0229343
0.0320134 0.0083772 0.0233768
0.0863813 0.0103304 0.0229496
0.21561 0.0111086 0.0119783
0.397055 0.0106966 0
0.588815 0.0140688 0.0106661
0.715541 0.013138 0.0170596
0.795087 0.0108949 0.0176547
0.860288 0.00823987 0.016434
0.00340276 0.025391 0.0212863
0.0197452 0.0208896 0.0179904
0.0672313 0.0172885 0.0157931
0.181659 0.0109102 0.00613413
0.360708 0.0102083 0
0.561135 0.0138247 0.0087129
0.702342 0.0133974 0.0167239
0.79559 0.0108797 0.0176547
0.873732 0.00762951 0.0160067
0.0135042 0.05243 0.0161288
0.0129244 0.0496071 0.0139925
0.0524147 0.0484779 0.0116884
0.166766 0.0474556 0.00646983
0.348791 0.0439612 0.00015259
0.558389 0.0433509 0.0091249
0.711177 0.0452888 0.0171969
0.812284 0.0533913 0.0175174
0.894469 0.0656138 0.015198
0.0336156 0.115785 0.0229038
0.0349737 0.120668 0.0237888
0.0419471 0.123735 0.0243534
0.148547 0.132738 0.0196994
0.337331 0.14699 0.00590524
0.542977 0.156252 0.00970474
0.692073 0.168872 0.016144
0.792111 0.18764 0.0166934
0.874311 0.211017 0.0134432
0.0656596 0.225284 0.0415961
0.0689403 0.235142 0.0430762
0.071107 0.241352 0.044007
0.150362 0.251011 0.0441596
0.328344 0.273732 0.030396
0.531762 0.303883 0.0164492
0.679469 0.330465 0.0160678
0.780499 0.3635 0.0128481
0.865278 0.400565 0.00650034
0.12282 0.362829 0.0596323
0.130144 0.378424 0.0615702
0.136889 0.392538 0.063447
0.205325 0.406928 0.0660563
0.396902 0.449012 0.0753338
0.578576 0.492882 0.0582437
0.698116 0.529992 0.0321508
0.792187 0.567697 0.0185245
0.872709 0.603876 0.00852979
0.198352 0.520104 0.0864118
0.208957 0.542718 0.0918288
0.218265 0.562737 0.0968643
0.332219 0.589914 0.107561
0.514946 0.637079 0.118669
0.660716 0.682078 0.108278
0.760754 0.707698 0.0737163
0.837644 0.733471 0.0482795
0.903746 0.757519 0.0360266
0.273075 0.674098 0.129992
0.285618 0.695521 0.137682
0.330648 0.717708 0.148516
0.464027 0.749264 0.160159
0.609735 0.783886 0.16408
0.723598 0.809461 0.1523
0.814878 0.826474 0.121782
0.881712 0.842786 0.0934462
0.93463 0.861799 0.0793164
0.350423 0.792264 0.199344
0.351934 0.792813 0.204868
0.428138 0.808759 0.214649
0.536889 0.833783 0.22356
0.658701 0.865614 0.221012
0.760388 0.891814 0.200427
0.846143 0.910353 0.16936
0.907683 0.924941 0.151461
0.954437 0.939666 0.155398
0 0.021912 0.0723583
0.0265049 0.0229038 0.0725567
0.0796979 0.0223697 0.0759747
0.212787 0.0173495 0.0770275
0.393606 0.0124971 0.0683604
0.581399 0.0145266 0.0705425
0.708919 0.0136568 0.0712902
0.789563 0.0113527 0.0716564
0.855924 0.00866712 0.0740215
0.000640879 0.034165 0.0683146
0.0121767 0.0300908 0.0649577
0.0591897 0.0263066 0.0657664
0.179202 0.0164645 0.0661479
0.359106 0.0119936 0.0578012
0.557351 0.0141299 0.0626993
0.699992 0.0138399 0.0707408
0.79498 0.0112459 0.0799115
0.873549 0.00793469 0.0915847
0.00688182 0.0572671 0.0617685
0.00643931 0.0550546 0.0597696
0.0437018 0.0552834 0.0609751
0.165225 0.0534218 0.0655375
0.353079 0.0462043 0.0580301
0.560403 0.0445411 0.0676432
0.712322 0.0466621 0.081529
0.813458 0.0546273 0.0946059
0.895384 0.066392 0.109163
0.0289464 0.117952 0.0545968
0.0301518 0.123735 0.0590372
0.0369573 0.12726 0.0611124
0.143618 0.138857 0.0596933
0.341711 0.151614 0.0473945
0.545769 0.158526 0.0485084
0.694453 0.17084 0.058793
0.795361 0.189868 0.0717632
0.87863 0.213993 0.0872969
0.0635386 0.226444 0.0562905
0.0659648 0.236179 0.0620432
0.0675364 0.242145 0.0655375
0.146746 0.253819 0.062211
0.332799 0.279377 0.0477302
0.537224 0.310033 0.0358282
0.684779 0.337072 0.0418097
0.78677 0.371389 0.0550546
0.872496 0.409354 0.073106
0.121996 0.364614 0.0651255
0.12755 0.380301 0.0724041
0.132509 0.394659 0.0797131
0.206409 0.413108 0.0813611
0.404837 0.458915 0.0915084
0.585794 0.503075 0.0772869
0.704417 0.539498 0.0625925
0.797955 0.576104 0.0684977
0.878416 0.611551 0.0825208
0.192981 0.523171 0.106935
0.199588 0.545129 0.122942
0.204028 0.562982 0.137911
0.328542 0.596551 0.149264
0.518441 0.646479 0.163638
0.664469 0.690394 0.153918
0.763912 0.71458 0.128832
0.840345 0.738979 0.121599
0.905348 0.761334 0.127962
0.253758 0.673823 0.196429
0.261891 0.693248 0.215961
0.311955 0.717906 0.231098
0.456123 0.754192 0.243015
0.607904 0.788891 0.250935
0.724224 0.815595 0.234882
0.814664 0.83125 0.204868
0.881544 0.847028 0.188052
0.934203 0.864668 0.189258
0.333425 0.790509 0.288029
0.333379 0.790753 0.295491
0.413489 0.80882 0.302907
0.53135 0.837934 0.313893
0.657008 0.870863 0.31902
0.75903 0.898085 0.301091
0.844022 0.914885 0.268788
0.906294 0.929641 0.255085
0.953231 0.945281 0.268986
0.00929274 0.055787 0.169604
0.0234684 0.0554665 0.168154
0.0574655 0.0568551 0.169299
0.180438 0.0556344 0.180835
0.399588 0.032578 0.21088
0.587045 0.0255131 0.225803
0.704967 0.0205997 0.23563
0.781323 0.0163272 0.243717
0.84593 0.0124514 0.254017
0.00883497 0.0612345 0.161685
0.0113985 0.0563058 0.156756
0.0439307 0.0532387 0.157351
0.148348 0.0536812 0.164797
0.365957 0.0322118 0.198016
0.567941 0.0254673 0.218204
0.701198 0.0210117 0.23856
0.791409 0.016434 0.258961
0.86717 0.0118868 0.281407
0.00921645 0.0790875 0.15108
0.00877394 0.0774395 0.149477
0.0327764 0.078172 0.152987
0.126802 0.0813611 0.164157
0.358419 0.0608988 0.205295
0.572152 0.0508431 0.229541
0.714031 0.0484627 0.25626
0.809384 0.0534218 0.281147
0.888045 0.063386 0.307332
0.0182193 0.127199 0.144427
0.0197757 0.133852 0.151049
0.0224918 0.137331 0.154665
0.0975967 0.149004 0.168795
0.328222 0.163241 0.212512
0.546807 0.160006 0.218402
0.691768 0.167239 0.237308
0.791455 0.184268 0.262364
0.875181 0.20824 0.292271
0.0502022 0.232578 0.165545
0.0526589 0.243397 0.175723
0.0542153 0.250568 0.182742
0.105348 0.257832 0.181903
0.304204 0.295247 0.195422
0.531929 0.326436 0.21326
0.682033 0.346441 0.231708
0.786557 0.377874 0.26009
0.874113 0.414115 0.293477
0.0894026 0.360723 0.180011
0.0928664 0.378378 0.196643
0.0966201 0.395193 0.21294
0.150011 0.407904 0.210254
0.371618 0.473655 0.228153
0.586084 0.524437 0.241062
0.70309 0.553002 0.253147
0.796918 0.584344 0.2766
0.877134 0.615869 0.30277
0.131304 0.50602 0.247288
0.137758 0.532113 0.2766
0.145083 0.555505 0.302876
0.240848 0.579629 0.299992
0.483238 0.649653 0.319722
0.660487 0.702113 0.331868
0.760555 0.723262 0.31931
0.835691 0.743328 0.32517
0.900954 0.763455 0.340459
0.205921 0.674449 0.375738
0.225071 0.700725 0.403845
0.264103 0.721065 0.419837
0.381979 0.74519 0.41236
0.585946 0.793774 0.422385
0.718135 0.823484 0.428443
0.808637 0.837781 0.405432
0.875059 0.850813 0.393698
0.928252 0.866346 0.399039
0.320974 0.80592 0.487755
0.322835 0.807645 0.498894
0.381949 0.818891 0.502556
0.489296 0.840925 0.492866
0.65272 0.888136 0.501961
0.756085 0.912291 0.499672
0.837629 0.92195 0.476844
0.899565 0.935012 0.465293
0.947692 0.950607 0.472679
0.0235142 0.100587 0.27985
0.0309453 0.0986038 0.275227
0.0561227 0.0973831 0.271702
0.121965 0.101335 0.274311
0.351568 0.0965438 0.301518
0.564416 0.0425269 0.37731
0.686946 0.0337835 0.403937
0.764187 0.0275273 0.426123
0.829114 0.0221408 0.448066
0.0229648 0.100572 0.269444
0.0218814 0.0951705 0.263767
0.0460365 0.0923629 0.260197
0.103365 0.0954757 0.262348
0.31574 0.0977951 0.286839
0.54963 0.0433509 0.372351
0.686931 0.0341955 0.410712
0.775937 0.0272526 0.44654
0.850629 0.0212558 0.481834
0.0253452 0.1187 0.259007
0.0251774 0.117891 0.258289
0.0406958 0.117327 0.259037
0.0951095 0.118303 0.266194
0.302968 0.121553 0.292897
0.553841 0.0632944 0.387961
0.69749 0.0552529 0.431403
0.791379 0.0576181 0.47303
0.869169 0.0662852 0.513176
0.0303807 0.160464 0.249271
0.032105 0.167452 0.256611
0.0330205 0.171221 0.260639
0.0844587 0.178927 0.273014
0.235004 0.196994 0.300893
0.529397 0.169833 0.398337
0.679606 0.169924 0.428138
0.77763 0.185718 0.468864
0.861295 0.211154 0.514321
0.0494087 0.243961 0.270832
0.0525978 0.25417 0.281071
0.0547646 0.261418 0.288457
0.0915694 0.270985 0.298939
0.200458 0.313405 0.344991
0.509346 0.351156 0.427848
0.675303 0.361822 0.464179
0.7794 0.387869 0.502388
0.86804 0.420935 0.542962
0.0991073 0.382452 0.333257
0.106767 0.401465 0.352575
0.114733 0.419898 0.371557
0.151736 0.438483 0.387564
0.271702 0.497826 0.436576
0.560891 0.565286 0.486503
0.710445 0.582452 0.505928
0.796246 0.601144 0.530327
0.873793 0.624109 0.556603
0.177462 0.565621 0.460838
0.193515 0.592294 0.490913
0.207446 0.614038 0.515892
0.268177 0.636606 0.533547
0.393927 0.669947 0.548241
0.639399 0.718227 0.57258
0.771878 0.741115 0.580697
0.836255 0.753628 0.582666
0.895674 0.76878 0.591302
0.278309 0.725109 0.59939
0.29337 0.741833 0.620386
0.320546 0.756725 0.636194
0.398733 0.776638 0.646265
0.518395 0.796139 0.636942
0.706035 0.827024 0.643366
0.812924 0.843 0.645548
0.873884 0.853758 0.644282
0.921874 0.86627 0.644114
0.358511 0.818723 0.68719
0.358648 0.817273 0.692531
0.404562 0.83006 0.705165
0.486213 0.852399 0.71133
0.606577 0.881468 0.695323
0.752941 0.910231 0.693401
0.840803 0.920958 0.69369
0.897154 0.932143 0.693462
0.941985 0.945296 0.697627
0.032929 0.13785 0.365332
0.0368963 0.135134 0.359152
0.0618296 0.133654 0.353933
0.109514 0.135454 0.352224
0.289006 0.150072 0.365637
0.557366 0.101076 0.425376
0.665995 0.0445106 0.515023
0.740505 0.0366217 0.543175
0.805325 0.0307164 0.574762
0.0313268 0.133104 0.351507
0.0303349 0.129061 0.345937
0.0518654 0.127443 0.340932
0.097612 0.128847 0.339467
0.257496 0.145083 0.357946
0.547066 0.106615 0.417319
0.670817 0.0455329 0.527001
0.755673 0.0369726 0.570672
0.828336 0.0310826 0.615076
0.0340581 0.151781 0.340871
0.0340734 0.151781 0.340963
0.0484627 0.151965 0.341802
0.0956893 0.152285 0.345892
0.246632 0.166079 0.371084
0.556848 0.131075 0.430014
0.684276 0.0683452 0.551659
0.771496 0.067277 0.602457
0.847288 0.0772259 0.652201
0.0405737 0.193439 0.330694
0.042298 0.200717 0.338537
0.0432441 0.20473 0.34287
0.0914015 0.210941 0.352499
0.186816 0.229267 0.38262
0.514382 0.229526 0.436194
0.667918 0.187778 0.55819
0.761151 0.197498 0.610819
0.84477 0.225757 0.667735
0.0574655 0.268833 0.347372
0.060502 0.279286 0.358022
0.0628977 0.287541 0.366552
0.0988174 0.297276 0.378485
0.18056 0.331945 0.420813
0.44242 0.387533 0.49099
0.666285 0.38941 0.617304
0.770779 0.408988 0.671199
0.859449 0.438758 0.715969
0.0980392 0.389685 0.406043
0.105959 0.409812 0.426551
0.114366 0.429389 0.446662
0.152514 0.450187 0.468086
0.252049 0.506813 0.525826
0.464881 0.587991 0.609506
0.703456 0.622599 0.658564
0.795193 0.628397 0.696178
0.869352 0.643641 0.726024
0.185061 0.565118 0.538598
0.199863 0.590173 0.565316
0.212009 0.610025 0.586755
0.272068 0.636591 0.612436
0.373663 0.674464 0.648035
0.563256 0.72874 0.698619
0.765591 0.763195 0.724651
0.841611 0.773983 0.737728
0.892897 0.783017 0.753048
0.286015 0.709972 0.665309
0.296468 0.723583 0.680644
0.319966 0.737575 0.695567
0.391653 0.76054 0.717128
0.489158 0.783459 0.734798
0.645335 0.821225 0.761166
0.803555 0.846265 0.776532
0.874128 0.857237 0.783993
0.917479 0.868177 0.791974
0.354406 0.790249 0.737362
0.352743 0.789364 0.73991
0.391836 0.802441 0.75462
0.468467 0.827909 0.776272
0.576196 0.86215 0.794644
0.705119 0.894102 0.805692
0.832578 0.914992 0.814237
0.896468 0.925719 0.82121
0.937835 0.93724 0.829633
0.0412604 0.164965 0.422614
0.0432746 0.1617 0.415442
0.0682536 0.159945 0.409674
0.111681 0.160632 0.405234
0.250828 0.177234 0.424582
0.552209 0.162005 0.444022
0.674311 0.0901503 0.549279
0.735424 0.0510262 0.622339
0.795804 0.0416724 0.659403
0.0387579 0.157366 0.406195
0.0378729 0.154635 0.401022
0.0581521 0.153002 0.395804
0.101671 0.15433 0.393454
0.227771 0.172335 0.416953
0.545663 0.167285 0.444144
0.68455 0.0975052 0.56379
0.755688 0.05626 0.65684
0.822492 0.0456245 0.708186
0.0410925 0.176471 0.395865
0.0413519 0.177523 0.397101
0.0568856 0.179187 0.399558
0.103334 0.180468 0.403861
0.221775 0.196185 0.43299
0.55555 0.195346 0.466896
0.700465 0.12961 0.591989
0.773999 0.0957198 0.694331
0.843961 0.0996872 0.751186
0.0480507 0.218601 0.385901
0.0500801 0.226551 0.394507
0.0512245 0.230869 0.399298
0.100893 0.237797 0.40943
0.177813 0.254871 0.437354
0.482979 0.280522 0.483635
0.681941 0.246845 0.59939
0.764797 0.231739 0.707286
0.8439 0.253285 0.77322
0.0657359 0.293034 0.401572
0.0694133 0.304448 0.413443
0.0725872 0.314076 0.423484
0.110567 0.325216 0.437125
0.185046 0.355154 0.474281
0.387228 0.416602 0.556863
0.665431 0.437827 0.654688
0.772992 0.439338 0.762448
0.857557 0.46125 0.819425
0.106737 0.411078 0.461295
0.116411 0.433173 0.483909
0.125887 0.454154 0.505409
0.167498 0.477974 0.53019
0.259098 0.526986 0.580667
0.423957 0.59762 0.659907
0.67686 0.647868 0.714824
0.791897 0.652842 0.776654
0.865538 0.661799 0.821057
0.190387 0.57847 0.588479
0.204547 0.602838 0.614038
0.2159 0.621408 0.633722
0.27715 0.647562 0.659449
0.367834 0.677806 0.689067
0.520851 0.72694 0.742687
0.73019 0.769924 0.785214
0.832334 0.78793 0.803235
0.885801 0.795377 0.832776
0.280842 0.712337 0.702647
0.290059 0.724941 0.716472
0.314763 0.738872 0.731106
0.381338 0.758862 0.750332
0.468559 0.776623 0.766491
0.601022 0.811353 0.802197
0.775464 0.846433 0.833921
0.863355 0.860975 0.843702
0.910063 0.871717 0.855558
0.339498 0.784268 0.765499
0.338476 0.783948 0.768063
0.377584 0.797223 0.782605
0.448981 0.819226 0.801404
0.5514 0.846235 0.820676
0.667018 0.876631 0.845731
0.810742 0.908232 0.870787
0.887434 0.922484 0.879042
0.931945 0.933776 0.888075
0.0452583 0.177523 0.449012
0.0471809 0.177752 0.449348
0.0745708 0.181369 0.454475
0.118257 0.185336 0.456443
0.226291 0.201694 0.475792
0.53608 0.214832 0.494392
0.682963 0.160998 0.570886
0.746151 0.109255 0.662379
0.800153 0.0730602 0.735943
0.0452583 0.177523 0.449012
0.0452583 0.177523 0.449012
0.0662699 0.178729 0.449729
0.109636 0.179797 0.446128
0.211551 0.198322 0.470603
0.533913 0.221195 0.503502
0.696468 0.173846 0.59678
0.769345 0.123857 0.703105
0.830213 0.0870069 0.785382
0.0496529 0.202228 0.450385
0.0502785 0.204639 0.453285
0.0674144 0.207599 0.45742
0.114519 0.209751 0.462119
0.211231 0.225483 0.490639
0.539834 0.251987 0.53576
0.712322 0.212619 0.633494
0.788418 0.17232 0.742123
0.853269 0.151949 0.827527
0.0568399 0.244923 0.440055
0.0594034 0.253651 0.44976
0.0621347 0.258579 0.455344
0.112627 0.266255 0.466545
0.181842 0.282383 0.492302
0.438132 0.318349 0.551476
0.682475 0.314824 0.640711
0.777661 0.29987 0.753368
0.852461 0.303151 0.847456
0.0760204 0.319265 0.454459
0.0806134 0.332097 0.467994
0.0848402 0.343481 0.480003
0.125566 0.357 0.496178
0.196185 0.383856 0.529686
0.348287 0.441962 0.611093
0.629541 0.48101 0.690867
0.772732 0.490761 0.794827
0.858366 0.499977 0.88127
0.120607 0.439811 0.518517
0.131624 0.463798 0.543008
0.142245 0.486198 0.565957
0.187564 0.511818 0.592187
0.272847 0.551644 0.633158
0.403647 0.607584 0.698421
0.634348 0.660304 0.76463
0.780667 0.682353 0.810224
0.860395 0.687037 0.873243
0.201083 0.598825 0.63859
0.214511 0.621607 0.66247
0.224796 0.638636 0.680461
0.287922 0.663203 0.704662
0.371954 0.686931 0.728313
0.497871 0.726146 0.774258
0.696437 0.772351 0.827787
0.815457 0.794095 0.84683
0.877287 0.805722 0.873503
0.281666 0.719646 0.739666
0.289891 0.730632 0.74995
0.31635 0.74403 0.76025
0.379828 0.762081 0.779049
0.457816 0.774792 0.794766
0.571481 0.803754 0.82884
0.746319 0.843641 0.872557
0.847593 0.862531 0.886168
0.900725 0.874891 0.896803
0.334966 0.783047 0.777951
0.334966 0.783047 0.777951
0.375586 0.796811 0.791226
0.443854 0.817426 0.811307
0.536797 0.839033 0.833341
0.637644 0.865476 0.867277
0.784329 0.900236 0.908217
0.873838 0.91986 0.921126
0.923964 0.934691 0.92958
0.0452583 0.177523 0.449012
0.0458228 0.177584 0.449104
0.0733196 0.181155 0.454185
0.118975 0.190906 0.468315
0.214527 0.21767 0.509331
0.504158 0.259663 0.568017
0.683848 0.23772 0.621836
0.756771 0.195361 0.699779
0.812055 0.15433 0.778622
0.0452583 0.177523 0.449012
0.0452583 0.177523 0.449012
0.0662089 0.180133 0.45275
0.11281 0.189242 0.465843
0.206226 0.215671 0.50631
0.512688 0.260777 0.570672
0.701961 0.24358 0.648157
0.780194 0.190372 0.735958
0.838239 0.131487 0.813306
0.0514229 0.207752 0.461341
0.0517891 0.209674 0.462135
0.0700847 0.213031 0.466484
0.118898 0.219684 0.479912
0.210376 0.240726 0.518685
0.52343 0.281788 0.586358
0.717372 0.262531 0.671962
0.796979 0.215702 0.766079
0.859724 0.175113 0.845762
0.0655833 0.269078 0.486656
0.0669718 0.274464 0.488975
0.0707408 0.277928 0.491249
0.122454 0.288945 0.510048
0.190936 0.3093 0.544518
0.386618 0.349401 0.618143
0.662226 0.370001 0.693843
0.782742 0.355474 0.785519
0.859754 0.337377 0.871672
0.0889601 0.350271 0.512764
0.0946059 0.36495 0.528161
0.099794 0.377951 0.541802
0.14342 0.393454 0.560143
0.212451 0.417868 0.590753
0.332174 0.470024 0.662455
0.571496 0.515877 0.740124
0.756634 0.533867 0.818479
0.858991 0.531304 0.899886
0.13814 0.474601 0.581033
0.150164 0.499382 0.606607
0.161578 0.522133 0.630182
0.210727 0.547982 0.656306
0.291478 0.578866 0.687388
0.400366 0.620752 0.737514
0.592187 0.671611 0.809552
0.76083 0.700038 0.840284
0.853971 0.707301 0.887755
0.214694 0.622614 0.691447
0.224445 0.638727 0.700206
0.232151 0.651041 0.706874
0.297124 0.674571 0.729931
0.378225 0.695491 0.753918
0.489326 0.72842 0.797406
0.673304 0.774594 0.856626
0.804349 0.798154 0.874784
0.872633 0.811154 0.888472
0.285054 0.724743 0.746792
0.293019 0.734401 0.751965
0.32105 0.747829 0.7626
0.383795 0.765347 0.780987
0.46038 0.777173 0.797696
0.566934 0.803464 0.835782
0.737316 0.843183 0.885466
0.84361 0.863615 0.899825
0.899153 0.876463 0.907118
0.334966 0.783047 0.777951
0.334966 0.783047 0.777951
0.376455 0.797101 0.791501
0.44416 0.817502 0.811383
0.537163 0.839124 0.833432
0.638834 0.866606 0.867796
0.784482 0.901076 0.910552
0.874311 0.921004 0.923568
0.925185 0.936187 0.930159
