assets/vintage.cube
TITLE "Generated by Resolve"
LUT_3D_SIZE 17
0 0.00106813 0.00103761
0.0158389 0.00190738 0.00134279
0.0329137 0.00302129 0.00260929
0.0547189 0.00555428 0.00408942
0.0875563 0.00823987 0.00556954
0.141161 0.0102541 0.0052491
0.218509 0.0106203 0.00227359
0.306203 0.0099794 0
0.401373 0.0107576 0
0.502297 0.0127565 0.00466926
0.592859 0.0140993 0.010956
0.663951 0.0140841 0.0152743
0.718303 0.013077 0.0171206
0.761242 0.0120851 0.0177615
0.797009 0.0108186 0.0176394
0.829252 0.00955215 0.0171359
0.861173 0.00819409 0.0164187
0.00195315 0.0121309 0.00291447
0.0108492 0.00979629 0.00260929
0.0266117 0.00874342 0.00320439
0.0460059 0.00761425 0.00393683
0.0751049 0.00766003 0.00543221
0.125124 0.00982681 0.0055848
0.199313 0.0104372 0.0031281
0.286152 0.0101472 6.10361e-05
0.379797 0.0104524 0
0.481132 0.012314 0.00317388
0.574472 0.0139467 0.00965896
0.648539 0.0141451 0.0143893
0.705638 0.0133364 0.0168002
0.75111 0.0123293 0.0176547
0.789319 0.0110933 0.0176699
0.824308 0.00975052 0.0172122
0.859281 0.00827039 0.0164492
0.00517281 0.0230259 0.00529488
0.00550851 0.0202029 0.004654
0.0219272 0.0188296 0.00466926
0.0412757 0.0176852 0.00549325
0.0689708 0.0162203 0.0059968
0.114153 0.0138857 0.00605783
0.184009 0.0107424 0.00402838
0.270024 0.0103456 0.00015259
0.363195 0.0102235 0
0.466026 0.0120241 0.00230411
0.562585 0.0138399 0.00881971
0.640406 0.0141756 0.0139315
0.701549 0.0134127 0.0166934
0.750591 0.0123445 0.0176547
0.792645 0.0109865 0.0176547
0.831525 0.00946059 0.0170901
0.869718 0.00781262 0.016144
0.00917067 0.0353857 0.00775158
0.00843824 0.0331426 0.00733959
0.0151675 0.0310216 0.00689708
0.0344091 0.0304723 0.00749218
0.0616464 0.0290379 0.00764477
0.105745 0.0271153 0.00714122
0.17409 0.0235142 0.00514229
0.257176 0.0173342 0.00077821
0.348196 0.0103456 0
0.453178 0.01178 0.00158694
0.554314 0.0137484 0.00822461
0.637659 0.0141909 0.0137636
0.703273 0.0133822 0.0167391
0.756176 0.0122072 0.0177005
0.800946 0.0106661 0.0175784
0.841871 0.00901808 0.016846
0.881407 0.00727855 0.0157473
0.0142824 0.052018 0.011017
0.0137789 0.050309 0.0106661
0.0133669 0.0489509 0.0103914
0.0254978 0.0479133 0.0101778
0.0521096 0.0476539 0.0105592
0.0964523 0.0474861 0.00959792
0.164706 0.0458991 0.00648508
0.250401 0.0437629 0.00233463
0.344686 0.0414282 7.62951e-05
0.450446 0.040238 0.00262455
0.553033 0.0399329 0.00869764
0.638224 0.040116 0.0141909
0.705653 0.0415045 0.0170443
0.760128 0.0445258 0.0178988
0.806607 0.0492409 0.0176089
0.848325 0.0548562 0.0167086
0.888533 0.0608988 0.0154421
0.0222477 0.077348 0.0157626
0.0220645 0.0767529 0.0156558
0.0221256 0.0769513 0.0156863
0.0220188 0.0766155 0.0156405
0.0439002 0.0773175 0.016144
0.0854963 0.0788891 0.0148623
0.156405 0.0824903 0.00987259
0.244404 0.0838941 0.00427253
0.339208 0.0855726 0.002121
0.444617 0.087602 0.0043183
0.5467 0.0905165 0.00918593
0.631861 0.0940414 0.0141756
0.699351 0.0986038 0.0169528
0.753796 0.104219 0.0178225
0.799985 0.111086 0.0174868
0.841138 0.118746 0.0165255
0.880522 0.126787 0.0150454
0.0331121 0.113985 0.0225834
0.0336004 0.115709 0.0228885
0.0343023 0.118273 0.0233463
0.0348516 0.120226 0.0237125
0.0387121 0.120363 0.023743
0.080354 0.124758 0.0242466
0.143511 0.128466 0.019379
0.234211 0.136812 0.00975052
0.330892 0.142229 0.00563058
0.436149 0.146929 0.00622568
0.536522 0.151369 0.0093843
0.619974 0.156954 0.0133974
0.686107 0.163882 0.0160067
0.739757 0.172045 0.0169985
0.785428 0.181628 0.016846
0.826902 0.192264 0.0158083
0.866972 0.203891 0.013962
0.0468147 0.162936 0.0313878
0.0476692 0.166186 0.0319524
0.0487831 0.17026 0.0326543
0.0497292 0.173571 0.0331884
0.0500343 0.174624 0.0333562
0.0804456 0.178164 0.0338445
0.141711 0.184405 0.0325322
0.225437 0.191745 0.0231174
0.32253 0.204242 0.0129702
0.428443 0.212284 0.00975052
0.528435 0.218647 0.0107424
0.611444 0.227085 0.013077
0.677241 0.237049 0.0148623
0.731273 0.248981 0.0155184
0.777371 0.261936 0.0149844
0.819455 0.276326 0.0134737
0.8598 0.291173 0.0111238
0.0644236 0.221546 0.0410315
0.065919 0.226047 0.0417182
0.0676432 0.23122 0.0424964
0.0690318 0.235431 0.043122
0.0696422 0.237247 0.0433967
0.0818952 0.236789 0.0431525
0.14464 0.245548 0.0434272
0.226596 0.254948 0.0399176
0.31989 0.26685 0.0296483
0.42356 0.283299 0.0192569
0.523598 0.296117 0.0158999
0.606027 0.307881 0.0158694
0.671427 0.321309 0.0159609
0.725521 0.336797 0.0152438
0.771817 0.353353 0.0133516
0.814359 0.371023 0.0106661
0.855848 0.389532 0.00743114
0.0893111 0.287724 0.0504005
0.0914778 0.292943 0.0510567
0.0939345 0.298619 0.0517891
0.0962692 0.303975 0.052491
0.0975662 0.306981 0.0528725
0.0969558 0.305592 0.0526894
0.159304 0.315007 0.052781
0.244129 0.329122 0.0548867
0.340795 0.345785 0.0510262
0.442222 0.363119 0.0408789
0.532647 0.38262 0.0301518
0.609049 0.399329 0.0241093
0.672343 0.416281 0.0201877
0.725933 0.434974 0.0170596
0.772229 0.4542 0.0137331
0.815061 0.474388 0.0101778
0.856764 0.494148 0.00631724
0.120333 0.357549 0.0589914
0.123461 0.364218 0.0598001
0.127077 0.371923 0.0607462
0.13077 0.379736 0.061738
0.133379 0.385183 0.0624704
0.133776 0.386007 0.0625772
0.194842 0.396963 0.0642557
0.284352 0.415274 0.0709544
0.383734 0.437095 0.0730602
0.485069 0.460731 0.0678111
0.568093 0.480125 0.0564889
0.632502 0.499214 0.0418708
0.689052 0.517983 0.0316472
0.739086 0.537224 0.0244907
0.783398 0.556252 0.0187076
0.824643 0.575402 0.0138094
0.864408 0.593454 0.00900282
0.156435 0.433021 0.0694133
0.1608 0.441993 0.0708782
0.165774 0.452216 0.0726635
0.170626 0.462181 0.074403
0.174472 0.470069 0.0758068
0.175555 0.472343 0.0762646
0.251835 0.488731 0.0816205
0.344839 0.50898 0.0910506
0.44361 0.534569 0.0953994
0.537438 0.561852 0.0930953
0.612589 0.582712 0.0835126
0.671046 0.598306 0.0669261
0.719753 0.614847 0.0504311
0.764462 0.631907 0.0386053
0.804883 0.648798 0.0297551
0.842817 0.664973 0.0228428
0.879957 0.680751 0.017258
0.194247 0.511482 0.0844587
0.199405 0.522316 0.0869154
0.20473 0.533593 0.0895705
0.209857 0.544625 0.0923018
0.213931 0.553414 0.0944686
0.239277 0.561181 0.0966201
0.319524 0.578576 0.104234
0.412253 0.599619 0.112795
0.504234 0.625589 0.116213
0.586435 0.651698 0.114885
0.653544 0.671931 0.106401
0.70811 0.685924 0.0909285
0.75433 0.699077 0.0725872
0.794644 0.712764 0.0569314
0.831678 0.72636 0.0471046
0.866148 0.739315 0.0404059
0.898817 0.751461 0.0350195
0.230106 0.588342 0.103731
0.235477 0.599771 0.106996
0.240818 0.611093 0.110216
0.246098 0.621912 0.113436
0.249821 0.62945 0.115724
0.30927 0.644495 0.120577
0.38822 0.661967 0.127749
0.476051 0.683238 0.133974
0.557397 0.706584 0.136706
0.628473 0.72845 0.135348
0.689097 0.745602 0.127581
0.741299 0.75729 0.113954
0.786221 0.767132 0.0974899
0.824567 0.777447 0.0819104
0.857771 0.788266 0.0700084
0.887922 0.79913 0.0613413
0.916777 0.809354 0.0548409
0.267796 0.664424 0.126757
0.274006 0.675685 0.130556
0.280308 0.686458 0.134432
0.285893 0.695979 0.137835
0.31809 0.707286 0.141695
0.380636 0.723262 0.147692
0.453986 0.739559 0.153643
0.53286 0.758007 0.158679
0.603326 0.77615 0.161166
0.6645 0.791379 0.158724
0.719615 0.803967 0.150469
0.768902 0.813825 0.137041
0.81149 0.821988 0.120623
0.847837 0.829892 0.104784
0.878737 0.838849 0.0923476
0.906096 0.848417 0.0838026
0.932097 0.858137 0.0780041
0.314961 0.740093 0.155688
0.321935 0.750118 0.160006
0.328237 0.759167 0.163912
0.344808 0.768719 0.168017
0.392523 0.782712 0.173953
0.447333 0.796155 0.179675
0.511009 0.809003 0.18436
0.577935 0.821546 0.186816
0.637949 0.83328 0.186084
0.691997 0.843305 0.180789
0.742809 0.852186 0.170977
0.78967 0.860243 0.157076
0.830625 0.867536 0.141131
0.8654 0.87451 0.126345
0.894621 0.882231 0.115663
0.920089 0.891051 0.109606
0.943954 0.900587 0.10724
0.35172 0.791165 0.178439
0.35172 0.791165 0.178439
0.35172 0.791165 0.178439
0.38529 0.797818 0.181216
0.425666 0.806317 0.185
0.475288 0.817533 0.189853
0.535622 0.832242 0.195651
0.59971 0.848844 0.199863
0.65684 0.863844 0.199954
0.708858 0.877455 0.196048
0.758648 0.890486 0.188388
0.804334 0.899687 0.175616
0.844144 0.906905 0.1608
0.877699 0.913909 0.148226
0.905745 0.921538 0.140902
0.930053 0.930312 0.139773
0.952468 0.938338 0.140764
0 0.00360113 0.010193
0.0152285 0.00395209 0.00972
0.0324102 0.00476081 0.00996414
0.0541848 0.00680552 0.0102998
0.0869001 0.00862135 0.00935378
0.139971 0.0102235 0.0053254
0.216709 0.0105898 0.00234989
0.304082 0.0099794 0
0.398932 0.0107271 0
0.499886 0.0127108 0.00450141
0.590707 0.0140841 0.0108034
0.662181 0.0140993 0.0151827
0.716854 0.0131075 0.0170901
0.760067 0.0121157 0.0177462
0.796109 0.0108492 0.0176394
0.828489 0.00958267 0.0171511
0.86067 0.00822461 0.0164187
0.00144961 0.0136263 0.010193
0.00994888 0.0107729 0.00813306
0.0258793 0.00941482 0.00746166
0.0452583 0.00791943 0.00679026
0.0742504 0.00762951 0.00585946
0.12372 0.00978103 0.00560006
0.197726 0.0104677 0.00321965
0.284352 0.0101625 6.10361e-05
0.377783 0.0104219 0
0.479179 0.0122835 0.00303655
0.57258 0.0139162 0.00952163
0.647303 0.0141604 0.0143282
0.704982 0.0133516 0.0167849
0.750591 0.0123445 0.0176547
0.789197 0.0111086 0.0176852
0.824689 0.00973526 0.0172122
0.859907 0.00825513 0.0164492
0.00456245 0.0234989 0.0096437
0.00425727 0.0205081 0.00750744
0.021149 0.0187839 0.00616464
0.0405127 0.0173495 0.00550851
0.0679484 0.0158083 0.00593576
0.11281 0.0135348 0.00602731
0.182544 0.0107729 0.00410468
0.268742 0.0103761 0.00015259
0.361807 0.0102083 0
0.464836 0.0120089 0.00222782
0.561715 0.0138247 0.00875868
0.640269 0.0141756 0.0139162
0.701946 0.0133974 0.0167086
0.751369 0.0123293 0.0176547
0.794064 0.0109255 0.0176547
0.833295 0.0093843 0.0170443
0.871733 0.00772107 0.0160678
0.00895705 0.0352483 0.00860609
0.00833143 0.0328222 0.00727855
0.0146334 0.0307774 0.0068513
0.0338903 0.0301366 0.00741588
0.0610513 0.0287785 0.00759899
0.105058 0.0270237 0.00712596
0.173327 0.0234989 0.00517281
0.256764 0.0175174 0.000808728
0.348211 0.0106813 0
0.45333 0.01178 0.0016022
0.555184 0.0137636 0.00828565
0.639033 0.0141909 0.0138399
0.705119 0.0133364 0.0167849
0.758251 0.0121614 0.017731
0.803235 0.0105745 0.0175479
0.844266 0.00891127 0.0168002
0.884047 0.00715648 0.015671
0.0141909 0.0517433 0.010956
0.0137179 0.0501411 0.0106355
0.0133364 0.0488289 0.0103609
0.0254826 0.0480201 0.010193
0.0521248 0.0478828 0.010605
0.0968032 0.0479286 0.0096437
0.165454 0.04654 0.00648508
0.25185 0.0447395 0.00231937
0.346563 0.0426184 0.000122072
0.45275 0.0416876 0.0027924
0.555718 0.0416419 0.00891127
0.640925 0.0418555 0.0143282
0.708476 0.0433814 0.0171206
0.763027 0.0465553 0.0179294
0.809506 0.0513008 0.0175631
0.851331 0.0570687 0.0166323
0.891493 0.0632029 0.0153201
0.0222477 0.077348 0.0157626
0.0221256 0.0769513 0.0156863
0.0222477 0.077348 0.0157626
0.0222477 0.077348 0.0157626
0.0450446 0.0783856 0.0163272
0.0869459 0.0801251 0.0149844
0.15848 0.0840314 0.00985733
0.246937 0.0856336 0.00428778
0.342199 0.0875257 0.00222782
0.447684 0.0895247 0.00451667
0.549905 0.092607 0.00939956
0.634943 0.0961929 0.0143435
0.702358 0.100801 0.0170291
0.756802 0.106462 0.0178225
0.802915 0.113436 0.0174258
0.844007 0.121126 0.0164187
0.883589 0.129305 0.0148775
0.0333715 0.114885 0.0227359
0.0338903 0.116762 0.0230869
0.034638 0.119478 0.0235752
0.0352178 0.121569 0.0239567
0.0403143 0.121965 0.024033
0.0821393 0.126589 0.0245212
0.145968 0.130587 0.0195468
0.23711 0.13904 0.00982681
0.334203 0.144656 0.00576791
0.439445 0.149294 0.00637827
0.539895 0.153826 0.00955215
0.623224 0.159564 0.0135195
0.689082 0.166323 0.0160678
0.743008 0.174853 0.0169833
0.78883 0.184588 0.0167697
0.830442 0.195483 0.01561
0.870588 0.207385 0.0137179
0.0471809 0.164355 0.031632
0.0480964 0.167773 0.0322423
0.0492714 0.172 0.032929
0.050248 0.175402 0.0334936
0.0505531 0.176455 0.0336614
0.0825513 0.180453 0.0342107
0.144411 0.186816 0.0328374
0.228397 0.194186 0.02327
0.325597 0.20676 0.0131685
0.431785 0.215 0.00994888
0.531868 0.221546 0.0109255
0.615015 0.230289 0.0132143
0.680751 0.240574 0.0149386
0.734966 0.252674 0.0154574
0.781201 0.26598 0.014786
0.823484 0.280507 0.0131838
0.864073 0.295796 0.0106813
0.0650645 0.223468 0.0413214
0.0666209 0.228153 0.0420233
0.0682994 0.233234 0.0427863
0.0697032 0.237446 0.0434272
0.0703136 0.239261 0.0437018
0.084123 0.23917 0.0434882
0.147463 0.248341 0.0438087
0.230259 0.258076 0.0402686
0.324239 0.270314 0.0300145
0.427924 0.286961 0.0195621
0.527764 0.300008 0.0161746
0.610056 0.312215 0.0160678
0.675547 0.326055 0.016022
0.729534 0.341451 0.0151064
0.776226 0.358557 0.0130922
0.818723 0.376333 0.0102998
0.860578 0.395102 0.00695811
0.0901503 0.289784 0.05066
0.0924544 0.295201 0.0513466
0.0949111 0.300877 0.052079
0.0973373 0.306447 0.0528115
0.0987259 0.309667 0.0532235
0.0981613 0.30837 0.0530556
0.163378 0.318807 0.0532998
0.24921 0.333593 0.0556039
0.346242 0.350301 0.0516823
0.447898 0.367987 0.0416266
0.537545 0.387747 0.0307012
0.613458 0.404562 0.0243534
0.676783 0.421958 0.0203098
0.730297 0.44065 0.0169528
0.776883 0.460121 0.0134432
0.819638 0.480095 0.00984207
0.861509 0.499947 0.00585946
0.121569 0.360189 0.0593118
0.124865 0.367208 0.0601663
0.128649 0.375265 0.0611582
0.132418 0.383169 0.0621958
0.135134 0.388861 0.0629587
0.135576 0.389807 0.0630808
0.200122 0.40206 0.0651408
0.290532 0.420752 0.0720684
0.390341 0.443046 0.0741894
0.491524 0.467277 0.0690166
0.573449 0.486549 0.0573739
0.637232 0.505348 0.0424506
0.693614 0.523995 0.0319219
0.743481 0.543008 0.0244755
0.787732 0.561975 0.0186313
0.82884 0.580758 0.0136263
0.868833 0.599008 0.00869764
0.15819 0.436652 0.0699779
0.162692 0.445884 0.0715648
0.167849 0.456474 0.0734112
0.172702 0.466438 0.0751507
0.176638 0.474617 0.0767224
0.179568 0.477226 0.0772564
0.258167 0.494545 0.0831464
0.351705 0.51516 0.0926223
0.45008 0.540856 0.0966354
0.543023 0.568231 0.0942702
0.617075 0.588617 0.0844587
0.675196 0.604166 0.067628
0.723873 0.620493 0.0508736
0.768215 0.637095 0.0387884
0.80853 0.653544 0.0297704
0.846601 0.669764 0.022858
0.88336 0.684794 0.01738
0.196307 0.515785 0.0854353
0.201511 0.526741 0.0879225
0.206867 0.538201 0.0906996
0.212055 0.549355 0.0934615
0.21619 0.558251 0.0956741
0.246036 0.567086 0.0982528
0.325917 0.584222 0.105882
0.418784 0.605707 0.114305
0.509957 0.631754 0.11751
0.59086 0.657191 0.115984
0.657099 0.676997 0.107332
0.711666 0.690837 0.0915847
0.757488 0.703365 0.0730907
0.798062 0.717006 0.0576638
0.834592 0.729854 0.0476692
0.868879 0.742565 0.0408484
0.901503 0.754788 0.035584
0.232349 0.593133 0.105104
0.237629 0.604334 0.108293
0.243229 0.616098 0.111681
0.248478 0.626719 0.1149
0.252094 0.634058 0.117113
0.315236 0.649683 0.12221
0.393957 0.667262 0.12932
0.481193 0.688472 0.135378
0.561608 0.711543 0.138033
0.631846 0.732784 0.136538
0.691814 0.749187 0.128634
0.744076 0.761013 0.114977
0.788693 0.770321 0.0982528
0.826749 0.780194 0.0825208
0.85977 0.790799 0.0704967
0.889784 0.801465 0.0617685
0.918746 0.811872 0.0555123
0.27039 0.669352 0.128344
0.276722 0.680323 0.132235
0.282902 0.690867 0.136004
0.288457 0.700298 0.139406
0.324834 0.712673 0.143832
0.386282 0.728069 0.149645
0.459342 0.744579 0.155673
0.536736 0.762036 0.160235
0.606302 0.779767 0.162524
0.667155 0.794888 0.159991
0.721782 0.806973 0.151476
0.770871 0.816495 0.137865
0.813336 0.824445 0.121263
0.849638 0.832258 0.105394
0.880415 0.841047 0.0929427
0.907652 0.850553 0.0844739
0.933501 0.860105 0.0786603
0.318441 0.745113 0.157839
0.324926 0.754406 0.161852
0.331609 0.763806 0.165988
0.350683 0.77322 0.170031
0.398428 0.787564 0.176211
0.452552 0.80087 0.181933
0.514626 0.812634 0.186145
0.580682 0.824674 0.188312
0.639994 0.835966 0.187228
0.693568 0.845594 0.181704
0.744167 0.854185 0.171725
0.790875 0.862028 0.157656
0.831708 0.869047 0.141573
0.866377 0.875929 0.126818
0.895659 0.883711 0.116243
0.921279 0.89279 0.110506
0.945113 0.902205 0.108232
0.351705 0.791165 0.1785
0.351614 0.791287 0.180407
0.351507 0.791379 0.182193
0.387778 0.798688 0.18677
0.427802 0.807218 0.191745
0.477043 0.81828 0.196399
0.537179 0.832822 0.200031
0.601175 0.849256 0.200549
0.658045 0.864164 0.199893
0.709804 0.877714 0.195941
0.759472 0.890684 0.188205
0.805417 0.90132 0.176181
0.844923 0.908171 0.161273
0.878538 0.915221 0.148745
0.906798 0.923049 0.141711
0.93109 0.931868 0.140856
0.953399 0.938628 0.140795
0 0.00756847 0.0229343
0.0149081 0.0078584 0.0230869
0.0320134 0.0083772 0.0233768
0.0534371 0.00920119 0.0236973
0.0863813 0.0103304 0.0229496
0.139467 0.0113832 0.0199741
0.21561 0.0111086 0.0119783
0.302632 0.0100557 0.00318914
0.397055 0.0106966 0
0.497795 0.012665 0.00434882
0.588815 0.0140688 0.0106661
0.660533 0.0141146 0.0150912
0.715541 0.013138 0.0170596
0.75877 0.0121462 0.017731
0.795087 0.0108949 0.0176547
0.827863 0.00961318 0.0171511
0.860288 0.00823987 0.016434
0.000686656 0.0161898 0.0222019
0.00880446 0.0135195 0.0204623
0.0246433 0.011841 0.0197757
0.0442817 0.0101778 0.0192569
0.0735943 0.00889601 0.0178531
0.123125 0.0107881 0.0153964
0.196475 0.0108644 0.00819409
0.282826 0.0101778 7.62951e-05
0.375906 0.0103914 0
0.477226 0.0122377 0.00291447
0.57113 0.0139162 0.00941482
0.646052 0.0141604 0.0142519
0.704189 0.0133669 0.0167697
0.750195 0.0123598 0.0176394
0.789319 0.0110933 0.0176699
0.825071 0.00972 0.0171969
0.86067 0.00822461 0.0164187
0.00340276 0.025391 0.0212863
0.0027924 0.0225834 0.0189212
0.0197452 0.0208896 0.0179904
0.0393072 0.0194095 0.0174258
0.0672313 0.0172885 0.0157931
0.112337 0.0141451 0.0127718
0.181659 0.0109102 0.00613413
0.26746 0.0103914 0.000167849
0.360708 0.0102083 0
0.463783 0.0119783 0.00218204
0.561135 0.0138247 0.0087129
0.640269 0.0141756 0.0139162
0.702342 0.0133974 0.0167239
0.752407 0.0122988 0.0176699
0.79559 0.0108797 0.0176547
0.835065 0.009308 0.0169985
0.873732 0.00762951 0.0160067
0.00743114 0.0366064 0.0191958
0.00688182 0.0341192 0.0172274
0.0131533 0.0322728 0.0159609
0.0326848 0.0312352 0.0153964
0.0605631 0.0298161 0.0137789
0.104829 0.0274815 0.0105745
0.173251 0.0237583 0.00518807
0.256641 0.0177615 0.000823987
0.348424 0.0111543 0
0.453925 0.0117952 0.00163272
0.556344 0.0137789 0.0083772
0.640681 0.0141756 0.0139467
0.706966 0.0133059 0.0168307
0.760327 0.0121004 0.0177462
0.805646 0.0104829 0.0175021
0.846784 0.00880446 0.0167391
0.886839 0.00862135 0.0155642
0.0135042 0.05243 0.0161288
0.0131685 0.0508125 0.0149233
0.0129244 0.0496071 0.0139925
0.0253605 0.0486152 0.0127718
0.0524147 0.0484779 0.0116884
0.0975357 0.0486152 0.00972
0.166766 0.0474556 0.00646983
0.253727 0.0458839 0.00228885
0.348791 0.0439612 0.00015259
0.455253 0.0432136 0.00297551
0.558389 0.0433509 0.0091249
0.643656 0.0437018 0.0144808
0.711177 0.0452888 0.0171969
0.765896 0.0485847 0.0179446
0.812284 0.0533913 0.0175174
0.854322 0.0593118 0.0165408
0.894469 0.0656138 0.015198
0.0222934 0.0774853 0.0157931
0.0222477 0.077348 0.0157626
0.0224308 0.0779431 0.0158694
0.0225223 0.0782177 0.0159152
0.0463569 0.0796826 0.016556
0.0886549 0.0816205 0.0151522
0.160693 0.0856489 0.00982681
0.249607 0.0873884 0.00430304
0.34519 0.0894789 0.00234989
0.450965 0.0916152 0.00469978
0.553094 0.0947127 0.00959792
0.63801 0.0983444 0.0144961
0.705364 0.103014 0.0171206
0.759793 0.108705 0.0178073
0.805844 0.115801 0.0173495
0.846983 0.123491 0.0162814
0.886641 0.13193 0.0147097
0.0336156 0.115785 0.0229038
0.034226 0.117968 0.0233005
0.0349737 0.120668 0.0237888
0.0355993 0.122927 0.0242008
0.0419471 0.123735 0.0243534
0.0841688 0.128511 0.0247807
0.148547 0.132738 0.0196994
0.239857 0.141268 0.00996414
0.337331 0.14699 0.00590524
0.442924 0.151781 0.00653086
0.542977 0.156252 0.00970474
0.626139 0.161959 0.0136416
0.692073 0.168872 0.016144
0.746105 0.177539 0.0169833
0.792111 0.18764 0.0166934
0.833844 0.198734 0.0153964
0.874311 0.211017 0.0134432
0.0475624 0.165774 0.0318761
0.0485084 0.169299 0.0325017
0.0497597 0.173663 0.0332036
0.0507515 0.177142 0.0337682
0.0510872 0.178286 0.0339513
0.084596 0.182666 0.0345617
0.146975 0.18912 0.0330968
0.231083 0.196475 0.0234531
0.328664 0.209277 0.0133669
0.435126 0.217731 0.0101472
0.535241 0.224491 0.0111086
0.618387 0.233524 0.0133669
0.684215 0.243977 0.0150149
0.738537 0.256367 0.0153658
0.785031 0.269902 0.0145876
0.82742 0.284764 0.0128481
0.868238 0.300252 0.0102235
0.0656596 0.225284 0.0415961
0.0672618 0.230076 0.0423133
0.0689403 0.235142 0.0430762
0.0703899 0.23946 0.0437324
0.071107 0.241352 0.044007
0.0862745 0.24152 0.0438392
0.150362 0.251011 0.0441596
0.233783 0.261097 0.0406195
0.328344 0.273732 0.030396
0.43238 0.290684 0.0199741
0.531762 0.303883 0.0164492
0.613901 0.316304 0.0162661
0.679469 0.330465 0.0160678
0.733532 0.346105 0.0149691
0.780499 0.3635 0.0128481
0.823285 0.381674 0.0099031
0.865278 0.400565 0.00650034
0.0910048 0.291875 0.0509194
0.0933394 0.29723 0.0516213
0.0958877 0.30312 0.0523842
0.0984054 0.308919 0.0531167
0.0998856 0.312337 0.0535592
0.099382 0.311162 0.0534066
0.167269 0.322576 0.0538186
0.254078 0.337819 0.0563058
0.351751 0.354971 0.0523995
0.4533 0.373007 0.0424048
0.542321 0.392859 0.0313268
0.617868 0.409857 0.0247044
0.681193 0.427619 0.0204166
0.734768 0.446296 0.0168002
0.781537 0.466163 0.0131838
0.824201 0.485801 0.00949111
0.866026 0.505455 0.00544747
0.12282 0.362829 0.0596323
0.126223 0.370077 0.0605173
0.130144 0.378424 0.0615702
0.134051 0.386603 0.0626535
0.136889 0.392538 0.063447
0.137453 0.393729 0.0636149
0.205325 0.406928 0.0660563
0.296605 0.4262 0.0732128
0.396902 0.449012 0.0753338
0.497261 0.473274 0.0700694
0.578576 0.492882 0.0582437
0.641993 0.511559 0.043061
0.698116 0.529992 0.0321508
0.747616 0.548409 0.0244144
0.792187 0.567697 0.0185245
0.833127 0.586252 0.0133974
0.872709 0.603876 0.00852979
0.15996 0.440299 0.0705882
0.164523 0.449668 0.072221
0.169802 0.460487 0.0741131
0.174807 0.470787 0.0759594
0.178759 0.479042 0.0776074
0.185763 0.482841 0.0784161
0.264347 0.500206 0.0846418
0.358328 0.521172 0.0940871
0.456809 0.547372 0.0979171
0.548638 0.574639 0.0954757
0.621714 0.59472 0.0854505
0.679286 0.609766 0.0682689
0.727504 0.625483 0.0512093
0.771771 0.641901 0.0388647
0.81236 0.658366 0.0299077
0.84979 0.673899 0.0228275
0.88687 0.689067 0.0175326
0.198352 0.520104 0.0864118
0.203632 0.531228 0.0889754
0.208957 0.542718 0.0918288
0.214252 0.554086 0.0946365
0.218265 0.562737 0.0968643
0.252155 0.572519 0.0997787
0.332219 0.589914 0.107561
0.424796 0.611368 0.115694
0.514946 0.637079 0.118669
0.594858 0.662242 0.117021
0.660716 0.682078 0.108278
0.714717 0.695155 0.0922408
0.760754 0.707698 0.0737163
0.800961 0.720546 0.0582284
0.837644 0.733471 0.0482795
0.871626 0.746044 0.0413672
0.903746 0.757519 0.0360266
0.234516 0.597696 0.106401
0.239841 0.609018 0.109621
0.245502 0.620706 0.113069
0.25069 0.631205 0.116258
0.255421 0.638468 0.118456
0.320943 0.654734 0.123781
0.399832 0.672694 0.130907
0.486244 0.693721 0.136736
0.565515 0.716121 0.139254
0.635142 0.737057 0.137758
0.69453 0.752773 0.129717
0.746471 0.76408 0.115801
0.791074 0.773404 0.0990005
0.829007 0.783047 0.0831464
0.861936 0.793484 0.0709392
0.891875 0.80412 0.0623484
0.920607 0.814282 0.0561379
0.273075 0.674098 0.129992
0.279377 0.684871 0.133852
0.285618 0.695521 0.137682
0.291341 0.705135 0.142763
0.330648 0.717708 0.148516
0.392142 0.733547 0.155383
0.464027 0.749264 0.160159
0.541115 0.76669 0.162737
0.609735 0.783886 0.16408
0.669459 0.797925 0.161074
0.723598 0.809461 0.1523
0.772519 0.818753 0.138552
0.814878 0.826474 0.121782
0.851041 0.834089 0.105852
0.881712 0.842786 0.0934462
0.908888 0.852155 0.0849317
0.93463 0.861799 0.0793164
0.320928 0.74992 0.16585
0.32726 0.759625 0.173556
0.333516 0.768597 0.180896
0.355871 0.778973 0.187732
0.402258 0.792645 0.195315
0.455589 0.805417 0.201404
0.517342 0.816938 0.204425
0.583047 0.828443 0.203677
0.642298 0.839536 0.199329
0.695552 0.848722 0.190127
0.7458 0.856794 0.176516
0.792447 0.864347 0.159991
0.833173 0.871122 0.143008
0.867796 0.877882 0.128573
0.896941 0.885573 0.119554
0.922301 0.894469 0.116182
0.946319 0.90425 0.117189
0.350423 0.792264 0.199344
0.350149 0.79234 0.202441
