assets/vintage.cube
TITLE "Generated by Resolve"
LUT_3D_SIZE 5
0 0.00106813 0.00103761
0.0875563 0.00823987 0.00556954
0.401373 0.0107576 0
0.718303 0.013077 0.0171206
0.861173 0.00819409 0.0164187
0.0142824 0.052018 0.011017
0.0521096 0.0476539 0.0105592
0.344686 0.0414282 7.62951e-05
0.705653 0.0415045 0.0170443
0.888533 0.0608988 0.0154421
0.0644236 0.221546 0.0410315
0.0696422 0.237247 0.0433967
0.31989 0.26685 0.0296483
0.671427 0.321309 0.0159609
0.855848 0.389532 0.00743114
0.194247 0.511482 0.0844587
0.213931 0.553414 0.0944686
0.504234 0.625589 0.116213
0.75433 0.699077 0.0725872
0.898817 0.751461 0.0350195
0.35172 0.791165 0.178439
0.425666 0.806317 0.185
0.65684 0.863844 0.199954
0.844144 0.906905 0.1608
0.952468 0.938338 0.140764
0 0.021912 0.0723583
0.0796979 0.0223697 0.0759747
0.393606 0.0124971 0.0683604
0.708919 0.0136568 0.0712902
0.855924 0.00866712 0.0740215
0.00688182 0.0572671 0.0617685
0.0437018 0.0552834 0.0609751
0.353079 0.0462043 0.0580301
0.712322 0.0466621 0.081529
0.895384 0.066392 0.109163
0.0635386 0.226444 0.0562905
0.0675364 0.242145 0.0655375
0.332799 0.279377 0.0477302
0.684779 0.337072 0.0418097
0.872496 0.409354 0.073106
0.192981 0.523171 0.106935
0.204028 0.562982 0.137911
0.518441 0.646479 0.163638
0.763912 0.71458 0.128832
0.905348 0.761334 0.127962
0.333425 0.790509 0.288029
0.413489 0.80882 0.302907
0.657008 0.870863 0.31902
0.844022 0.914885 0.268788
0.953231 0.945281 0.268986
0.0235142 0.100587 0.27985
0.0561227 0.0973831 0.271702
0.351568 0.0965438 0.301518
0.686946 0.0337835 0.403937
0.829114 0.0221408 0.448066
0.0253452 0.1187 0.259007
0.0406958 0.117327 0.259037
0.302968 0.121553 0.292897
0.69749 0.0552529 0.431403
0.869169 0.0662852 0.513176
0.0494087 0.243961 0.270832
0.0547646 0.261418 0.288457
0.200458 0.313405 0.344991
0.675303 0.361822 0.464179
0.86804 0.420935 0.542962
0.177462 0.565621 0.460838
0.207446 0.614038 0.515892
0.393927 0.669947 0.548241
0.771878 0.741115 0.580697
0.895674 0.76878 0.591302
0.358511 0.818723 0.68719
0.404562 0.83006 0.705165
0.606577 0.881468 0.695323
0.840803 0.920958 0.69369
0.941985 0.945296 0.697627
0.0412604 0.164965 0.422614
0.0682536 0.159945 0.409674
0.250828 0.177234 0.424582
0.674311 0.0901503 0.549279
0.795804 0.0416724 0.659403
0.0410925 0.176471 0.395865
0.0568856 0.179187 0.399558
0.221775 0.196185 0.43299
0.700465 0.12961 0.591989
0.843961 0.0996872 0.751186
0.0657359 0.293034 0.401572
0.0725872 0.314076 0.423484
0.185046 0.355154 0.474281
0.665431 0.437827 0.654688
0.857557 0.46125 0.819425
0.190387 0.57847 0.588479
0.2159 0.621408 0.633722
0.367834 0.677806 0.689067
0.73019 0.769924 0.785214
0.885801 0.795377 0.832776
0.339498 0.784268 0.765499
0.377584 0.797223 0.782605
0.5514 0.846235 0.820676
0.810742 0.908232 0.870787
0.931945 0.933776 0.888075
0.0452583 0.177523 0.449012
0.0733196 0.181155 0.454185
0.214527 0.21767 0.509331
0.683848 0.23772 0.621836
0.812055 0.15433 0.778622
0.0514229 0.207752 0.461341
0.0700847 0.213031 0.466484
0.210376 0.240726 0.518685
0.717372 0.262531 0.671962
0.859724 0.175113 0.845762
0.0889601 0.350271 0.512764
0.099794 0.377951 0.541802
0.212451 0.417868 0.590753
0.571496 0.515877 0.740124
0.858991 0.531304 0.899886
0.214694 0.622614 0.691447
0.232151 0.651041 0.706874
0.378225 0.695491 0.753918
0.673304 0.774594 0.856626
0.872633 0.811154 0.888472
0.334966 0.783047 0.777951
0.376455 0.797101 0.791501
0.537163 0.839124 0.833432
0.784482 0.901076 0.910552
0.925185 0.936187 0.930159
